X: 678
T: Jeff Davis
C:Norman Blake
B: jims roots
M:4/4
L:1/8
Q: 1/4=100
K:C
V:1 
%Transcribed by Mark Dixon  TablEdited by Mike Stangeland
%460
xAB |: "Am"cBcA dgge | e2 e2 dcAG | ABcd egag|
[1 "E7"edcB "Am"A2 AB:| [2 "E7"edcB "Am"A2 eg |:"Am" a2eg a2eg | aged cBeg |
a2 eg a2 eg | agec "E7"d2 eg || "Am"a2 eg a2 eg | aged cBAG |
ABcd egag| [1 "E7"edcB "Am"A2 eg:| [2 "E7"ed"Am"cB A4||
% abcbook-tune_id 6298c25ddc8a8db7a107b1f5


% abcbook-boost 0
% abcbook-tablature 
% abcbook-transpose 
% abcbook-lastupdated 1654178399091
% abcbook-soundfonts 
% abcbook-repeats 1


